X: 492
T: reel du P\`ere Bruneau
C: Lorenzo Picard
S: from the Roaring Jelly collection, slightly edited and simplified.
R: reel
M: C|
L: 1/8
K: D
(3ABc "A7"||\
"D"dAFA "G"GBAG | "D"FA"A7"EA "D"D2 FA | "D"dfed "Em"cBAG | "A7"FDEG "D"FDFA ||
"D"dAFA "G"GBAG | "D"FA"A7"EA "D"D2 FA | "D"dfed "Em"cBAG | "A7"FABc "D"d2 :|
~B2 "B1"||\
"D"A2FA dFAd | fAdf a2zB | A2FA dFAd | "Em"c2ec B2cB ||\
"(A7)"E3F G2A2 |
"A7"c3c cc~B2 | A2cB AGFE | "D"DdDd "A7"~B2 |]\
AB "B2"||\
"D"A2FA dFAd | fAd(f a) z2 B |
"D"A2 FA dFAd | "Em"c2ec B2cB ||\
"A"E3F G2A2 | c3c c2~B2 | "A7"A2 cB AGFE | "D"D2FA d2 |]

%%sep 1 1 500

